packages/components/Atoms/Icon/assets/img/rpl_icon_docx.svg

<svg width="20" height="20" viewBox="0 0 20 20" overflow="visible" xmlns="http://www.w3.org/2000/svg">
  <path fill-rule="evenodd" clip-rule="evenodd" d="M10 5V2.824L12.176 5H10ZM10.003 0H1C0.447 0 0 0.447 0 1V19C0 19.553 0.447 20 1 20H14C14.553 20 15 19.553 15 19V16H13V18H2V2H8V6C8 6.553 8.447 7 9 7H13V9H15V4.997L10.003 0Z"
    fill="inherit" />
  <path fill-rule="evenodd" clip-rule="evenodd" d="M5.60642 11.3984C5.49542 11.2304 5.32642 11.1184 5.01842 11.1184H4.47942V13.9194H5.01842C5.32642 13.9194 5.49542 13.8074 5.60642 13.6394C5.70542 13.5004 5.74042 13.3674 5.74042 12.5194C5.74042 11.6784 5.70542 11.5394 5.60642 11.3984ZM6.44742 14.5224C6.10442 14.8654 5.62142 15.0124 5.10242 15.0124H3.25342V10.0264H5.10242C5.62142 10.0264 6.10442 10.1724 6.44742 10.5164C7.02842 11.0974 6.96542 11.7354 6.96542 12.5194C6.96542 13.3034 7.02842 13.9414 6.44742 14.5224Z"
    fill="inherit" />
  <path fill-rule="evenodd" clip-rule="evenodd" d="M9.89751 11.2939C9.80651 11.1749 9.63151 11.0759 9.40751 11.0759C9.18351 11.0759 9.00751 11.1749 8.91751 11.2939C8.80451 11.4399 8.73551 11.6079 8.73551 12.5199C8.73551 13.4299 8.80451 13.5909 8.91751 13.7379C9.00751 13.8569 9.18351 13.9619 9.40751 13.9619C9.63151 13.9619 9.80651 13.8569 9.89751 13.7379C10.0095 13.5909 10.0805 13.4299 10.0805 12.5199C10.0805 11.6079 10.0095 11.4399 9.89751 11.2939ZM10.8005 14.4939C10.4375 14.8579 10.0165 15.0549 9.40751 15.0549C8.79751 15.0549 8.37751 14.8579 8.01351 14.4939C7.48851 13.9689 7.50951 13.2689 7.50951 12.5199C7.50951 11.7699 7.48851 11.0689 8.01351 10.5439C8.37751 10.1799 8.79751 9.98389 9.40751 9.98389C10.0165 9.98389 10.4375 10.1799 10.8005 10.5439C11.3265 11.0689 11.3055 11.7699 11.3055 12.5199C11.3055 13.2689 11.3265 13.9689 10.8005 14.4939Z"
    fill="inherit" />
  <path fill-rule="evenodd" clip-rule="evenodd" d="M13.7402 15.0546C13.1592 15.0546 12.7182 14.8586 12.3532 14.4936C11.8282 13.9686 11.8492 13.2686 11.8492 12.5196C11.8492 11.7696 11.8282 11.0696 12.3532 10.5436C12.7182 10.1796 13.1592 9.98459 13.7402 9.98459C14.6852 9.98459 15.4492 10.5086 15.6312 11.6086H14.3852C14.3072 11.3286 14.1532 11.0756 13.7472 11.0756C13.5232 11.0756 13.3552 11.1676 13.2632 11.2866C13.1522 11.4336 13.0752 11.6086 13.0752 12.5196C13.0752 13.4296 13.1522 13.6046 13.2632 13.7516C13.3552 13.8706 13.5232 13.9616 13.7472 13.9616C14.1532 13.9616 14.3072 13.7096 14.3852 13.4296H15.6312C15.4492 14.5296 14.6852 15.0546 13.7402 15.0546Z"
    fill="inherit" />
  <path fill-rule="evenodd" clip-rule="evenodd" d="M18.5986 15.0127L17.7796 13.4787L16.9596 15.0127H15.5596L17.1146 12.4557L15.6576 10.0267H17.0506L17.7796 11.4337L18.5076 10.0267H19.9016L18.4456 12.4557L19.9996 15.0127H18.5986Z"
    fill="inherit" />
</svg>

<svg width="20" height="20" overflow="visible" xmlns="http://www.w3.org/2000/svg"><path fill-rule="evenodd" clip-rule="evenodd" d="M10 5V2.824L12.176 5H10zm.003-5H1a1 1 0 00-1 1v18a1 1 0 001 1h13a1 1 0 001-1v-3h-2v2H2V2h6v4a1 1 0 001 1h4v2h2V4.997L10.003 0z" fill="inherit"/><path fill-rule="evenodd" clip-rule="evenodd" d="M5.606 11.398c-.11-.168-.28-.28-.588-.28H4.48v2.801h.54c.307 0 .476-.112.587-.28.1-.139.134-.272.134-1.12 0-.84-.035-.98-.134-1.12zm.841 3.124c-.343.343-.826.49-1.345.49H3.253v-4.986h1.85c.518 0 1.001.146 1.344.49.581.581.518 1.22.518 2.003 0 .784.063 1.422-.518 2.003zM9.898 11.294a.614.614 0 00-.49-.218c-.224 0-.4.099-.49.218-.113.146-.182.314-.182 1.226 0 .91.069 1.07.182 1.218.09.119.266.224.49.224a.617.617 0 00.49-.224c.111-.147.183-.308.183-1.218 0-.912-.072-1.08-.183-1.226zm.902 3.2c-.363.364-.784.56-1.392.56-.61 0-1.03-.196-1.394-.56-.525-.525-.504-1.225-.504-1.974 0-.75-.021-1.451.504-1.976.364-.364.784-.56 1.394-.56.609 0 1.03.196 1.393.56.525.525.505 1.226.505 1.976 0 .749.02 1.449-.505 1.974zM13.74 15.055c-.58 0-1.022-.196-1.387-.561-.525-.525-.504-1.225-.504-1.974 0-.75-.02-1.45.504-1.976.365-.364.806-.56 1.387-.56.945 0 1.71.525 1.891 1.625h-1.246c-.078-.28-.232-.533-.638-.533-.224 0-.392.092-.484.21-.11.148-.188.323-.188 1.234 0 .91.077 1.085.188 1.232.092.119.26.21.484.21.406 0 .56-.252.638-.532h1.246c-.182 1.1-.946 1.625-1.89 1.625z" fill="inherit"/><path fill-rule="evenodd" clip-rule="evenodd" d="M18.599 15.013l-.82-1.534-.82 1.534h-1.4l1.556-2.557-1.457-2.43h1.393l.729 1.408.728-1.407h1.394l-1.456 2.429L20 15.013h-1.401z" fill="inherit"/></svg>
